X:1
T:Cancionero de Palacio
T:Yo me estaba reposando
T:Juan del Encina
T:Yo me estaba reposando
T:Cancionero de Palacio, No. 62
T:CPDL - Creative Commons Attribution Non Commercial 3.0
T:CPDL - Creative Commons Attribution Non Commercial 3.0
C:Juan del Encina
Z:CPDL - Creative Commons Attribution Non Commercial 3.0
%%score [ 1 2 3 4 ]
L:1/8
M:2/2
K:C
V:1 treble nm="S"
V:2 treble nm="A"
V:3 treble-8 nm="T"
V:4 bass nm="B"
V:1
 A4 A4 | A4 G2 F2 | E6 F2 | G4 A4- | A4 G4 | A8 | !fermata!A8 | A4 A4 | B4 B4 | c8 | A8 | B8 | %12
w: 1.~Yo m'es-|ta- ba _|re- po-|san- *|||do|dur- mien-|do co-|mo|so-|lí-|
w: 2.~Le- van-|te- me _|muy sin|tien- *|||to|de la|ca- ma'en|que|dor-|mí-|
 !fermata!A8 | B4 B4 | c4 c4 | B4 G4 | A4 G2 F2 | !fermata!E8 | E4 E4 | F4 F4 | E6 F2 | G4 A4- | %22
w: a,|re- cor-|dé, tris-|te, llo-|ran- * *|do|con gran|pe- na|que sen-|tí- *|
w: a,|cer- ca-|do de|pen- sa-|mien- * *|to-|que va-|ler no|me po-|dí- *|
 A4 ^G4 | A8- | A8 |] %25
w: |a.|_|
w: |a.|_|
V:2
 A,4 A,4 | A,8 | G,8 | G,4 C3 D | E8 | C4 D2 E2 | !fermata!F8 | F4 E3 F | G4 G4 | G8 | F2 ED C4- | %11
w: 1.~Yo m'es-|ta-|ba|re- * *|po-|san- * *|do|dur- mien- *|do co-|mo|so- * * *|
w: 2.~Le- van-|te-|me|muy _ _|sin|tien- * *|to|de la _|ca- ma'en|que|dor- * * *|
 C2 B,A, B,4 | !fermata!C8 | G8 | G8 | G2 FE D2 CB, | A,8 | !fermata!G,8 | G,4 G,4 | D4 D4 | G,8 | %21
w: * * * lí-|a,|re-|cor-|dé, tris- * te, llo- *|ran-|do|con gran|pe- na|que|
w: * * * mí-|a,|cer-|ca-|do de * pen- sa- *|mien-|to|que va-|ler no|me|
 G,4 C3 D | E8 | ^C4 E4- | E8 |] %25
w: sen- tí- *||a. _|_|
w: po- dí- *||a. _|_|
V:3
 A4 A4 | c8 | c8 | B4 A4 | B8 | A6 B2 | !fermata!c8 | c4 c4 | d4 d4 | e8 | c4 f4- | f2 ed e4 | %12
w: 1.~Yo m'es-|ta-|ba|re- *|po|san- *|do|dur- mien-|do co-|mo|so- *|* * * lí-|
w: 2.~Le- van-|te-|me|muy _|sin|tien- *|to|de la|ca- ma'en|que|dor- *|* * * mí-|
 !fermata!f8 | d4 d4 | e4 e4 | d4 B4 | c8 | !fermata!c8 | c4 c4 | A4 B4 | c8 | B4 A4 | B8 | A8- | %24
w: a,|re- cor-|dé, tris-|te, llo-|ran-|do|con gran|pe- na|que|sen- tí-||a.|
w: a,|cer- ca-|do de|pen- sa-|mien-|to|que va-|ler no|me|po- dí-||a.|
 A8 |] %25
w: _|
w: _|
V:4
 A,4 A,4 | F,4 E,2 D,2 | C,6 D,2 | E,4 F,4 | E,8 | F,8 | !fermata!F,8 | F,4 A,4 | G,4 G,4 | C,8 | %10
w: 1.~Yo m'es-|ta- ba _|re- po-|san- *|||do|dur- mien-|do co-|mo|
w: 2.~Le- van-|te- me _|muy sin|tien- *|||to|de la|ca- ma'en|que|
 F,8 | G,8 | !fermata!F,8 | G,4 G,4 | C,4 C,4 | G,4 G,4 | F,4 E,2 D,2 | !fermata!C,8 | C,4 C,4 | %19
w: so-|lí-|a,|re- cor-|dé, tris-|te, llo-|ran- * *|do|con gran|
w: dor-|mí-|a,|cer- ca-|do de|pen- sa-|mien- * *|to|que va-|
 D,4 D,4 | C,6 D,2 | E,4 F,4 | E,8 | A,,8- | A,,8 |] %25
w: pe- na|que sen-|tí- *||a.|_|
w: ler no|me po-|dí- *||a.|_|

